X:1
T:Brown Adam
M:4/4
L:1/4
K:C
 E| A3/2 B/2 c G| E G E/2D/2 C| G c c3/2 e/2| d3| z/2 E/2| A3/2 B/2 c G|\
 E GE/2-D/2 C| E AG/2-A/2 B| A3||
